X: 12392
T: Fanny Power
R: waltz
M: 3/4
K: Fmajor
M:6/8
"Grazioso"F|F2 C FGA|B2 A G2 F|E2 D CEC|E2 F G2 B|
AGF ABc|d2 G G2 F|E2 D CFE|F3 F2||
A|cA/B/c cA/B/c|FAF FAF|dB/c/d dB/c/d|GBG GBG|
ABc def|efg cdc|A2 F GAG|F3 F2||
M:3/4
"Grazioso"F2|F4 C2|F2 G2 A2|B4 A2|G4 F2|E4 D2|C2 E2 C2|E4 F2|G4 B2|
A2 G2 F2|A2 B2 c2|d4 G2|G4 F2|E4 D2|C2 F2 E2|F6|F4||
A2|c2 AB c2|c2 AB c2|F2 A2 F2|F2 A2 F2|d2 Bc d2|d2 Bc d2|G2 B2 G2|G2 B2 G2|
A2 B2 c2|d2 e2 f2|e2 f2 g2|c2 d2 c2|A4 F2|G2 A2 G2|F6|F4||

